svgs/charts/line-chart-up-01.svg

<svg width="24" height="24" viewBox="0 0 24 24" fill="none" xmlns="http://www.w3.org/2000/svg">
<path d="M21 21H4.6C4.03995 21 3.75992 21 3.54601 20.891C3.35785 20.7951 3.20487 20.6422 3.10899 20.454C3 20.2401 3 19.9601 3 19.4V3M20 8L16.0811 12.1827C15.9326 12.3412 15.8584 12.4204 15.7688 12.4614C15.6897 12.4976 15.6026 12.5125 15.516 12.5047C15.4179 12.4958 15.3215 12.4458 15.1287 12.3457L11.8713 10.6543C11.6785 10.5542 11.5821 10.5042 11.484 10.4953C11.3974 10.4875 11.3103 10.5024 11.2312 10.5386C11.1416 10.5796 11.0674 10.6588 10.9189 10.8173L7 15" stroke="#1C1D20" stroke-width="1.5" stroke-linecap="round" stroke-linejoin="round"/>
</svg>

<svg fill="none" xmlns="http://www.w3.org/2000/svg" viewBox="0 0 24 24"><path d="M21 21H4.6c-.56 0-.84 0-1.054-.109a1 1 0 0 1-.437-.437C3 20.24 3 19.96 3 19.4V3m17 5-3.919 4.183c-.148.158-.223.237-.312.278a.5.5 0 0 1-.253.044c-.098-.01-.194-.06-.387-.16l-3.258-1.69c-.193-.1-.289-.15-.387-.16a.5.5 0 0 0-.253.044c-.09.04-.164.12-.312.278L7 15" stroke="#1C1D20" stroke-width="1.5" stroke-linecap="round" stroke-linejoin="round"/></svg>
